mimes/24/application-json.svg

<?xml version="1.0" encoding="UTF-8" standalone="no"?>
<svg
   xmlns:dc="http://purl.org/dc/elements/1.1/"
   xmlns:cc="http://creativecommons.org/ns#"
   xmlns:rdf="http://www.w3.org/1999/02/22-rdf-syntax-ns#"
   xmlns:svg="http://www.w3.org/2000/svg"
   xmlns="http://www.w3.org/2000/svg"
   xmlns:xlink="http://www.w3.org/1999/xlink"
   id="svg3828"
   height="24"
   width="24"
   version="1.1">
  <defs
     id="defs3830">
    <linearGradient
       id="linearGradient3977">
      <stop
         offset="0"
         style="stop-color:#ffffff;stop-opacity:1"
         id="stop3979" />
      <stop
         offset="0"
         style="stop-color:#ffffff;stop-opacity:0.23529412"
         id="stop3981" />
      <stop
         offset="1"
         style="stop-color:#ffffff;stop-opacity:0.15686275"
         id="stop3983" />
      <stop
         offset="1"
         style="stop-color:#ffffff;stop-opacity:0.39215687"
         id="stop3985" />
    </linearGradient>
    <linearGradient
       id="linearGradient3600-4">
      <stop
         offset="0"
         style="stop-color:#f4f4f4;stop-opacity:1"
         id="stop3602-7" />
      <stop
         offset="1"
         style="stop-color:#dbdbdb;stop-opacity:1"
         id="stop3604-6" />
    </linearGradient>
    <linearGradient
       id="linearGradient5060">
      <stop
         offset="0"
         style="stop-color:#000000;stop-opacity:1"
         id="stop5062" />
      <stop
         offset="1"
         style="stop-color:#000000;stop-opacity:0"
         id="stop5064" />
    </linearGradient>
    <linearGradient
       id="linearGradient5048">
      <stop
         offset="0"
         style="stop-color:#000000;stop-opacity:0"
         id="stop5050" />
      <stop
         offset="0.5"
         style="stop-color:#000000;stop-opacity:1"
         id="stop5056" />
      <stop
         offset="1"
         style="stop-color:#000000;stop-opacity:0"
         id="stop5052" />
    </linearGradient>
    <linearGradient
       gradientTransform="matrix(0.40540511,0,0,0.51351351,2.2696871,-0.3243195)"
       gradientUnits="userSpaceOnUse"
       xlink:href="#linearGradient3977"
       id="linearGradient3013"
       y2="41.526306"
       x2="23.99999"
       y1="6.4736748"
       x1="23.99999" />
    <linearGradient
       gradientTransform="matrix(0.45714178,0,0,0.43456667,1.0285964,0.90372283)"
       gradientUnits="userSpaceOnUse"
       xlink:href="#linearGradient3600-4"
       id="linearGradient3016"
       y2="47.013336"
       x2="25.132275"
       y1="0.98520643"
       x1="25.132275" />
    <radialGradient
       gradientTransform="matrix(0.01204859,0,0,0.0082353,13.238793,18.980564)"
       gradientUnits="userSpaceOnUse"
       xlink:href="#linearGradient5060"
       id="radialGradient3021"
       fy="486.64789"
       fx="605.71429"
       r="117.14286"
       cy="486.64789"
       cx="605.71429" />
    <radialGradient
       gradientTransform="matrix(-0.01204859,0,0,0.0082353,10.761206,18.980564)"
       gradientUnits="userSpaceOnUse"
       xlink:href="#linearGradient5060"
       id="radialGradient3024"
       fy="486.64789"
       fx="605.71429"
       r="117.14286"
       cy="486.64789"
       cx="605.71429" />
    <linearGradient
       gradientTransform="matrix(0.0352071,0,0,0.0082353,-0.724852,18.980547)"
       gradientUnits="userSpaceOnUse"
       xlink:href="#linearGradient5048"
       id="linearGradient3027"
       y2="609.50507"
       x2="302.85715"
       y1="366.64789"
       x1="302.85715" />
    <linearGradient
       x1="17.285671"
       y1="-1.7638716"
       x2="26.887402"
       y2="57.507111"
       id="linearGradient3192-0-3-3"
       xlink:href="#linearGradient937"
       gradientUnits="userSpaceOnUse"
       gradientTransform="matrix(0.5531492,0.14755837,-0.08960859,0.33296082,2.49614,-0.540137)" />
    <linearGradient
       id="linearGradient937">
      <stop
         style="stop-color:#9bdb4d;stop-opacity:1"
         offset="0"
         id="stop933" />
      <stop
         style="stop-color:#3a9104;stop-opacity:1"
         offset="1"
         id="stop935" />
    </linearGradient>
  </defs>
  <metadata
     id="metadata3833">
    <rdf:RDF>
      <cc:Work
         rdf:about="">
        <dc:format>image/svg+xml</dc:format>
        <dc:type
           rdf:resource="http://purl.org/dc/dcmitype/StillImage" />
        <dc:title></dc:title>
      </cc:Work>
    </rdf:RDF>
  </metadata>
  <rect
     style="opacity:0.15;fill:url(#linearGradient3027);fill-opacity:1;fill-rule:nonzero;stroke:none;stroke-width:1;marker:none;visibility:visible;display:inline;overflow:visible"
     id="rect2879"
     y="22"
     x="3.5000007"
     height="2"
     width="16.999998" />
  <path
     style="opacity:0.15;fill:url(#radialGradient3024);fill-opacity:1;fill-rule:nonzero;stroke:none;stroke-width:1;marker:none;visibility:visible;display:inline;overflow:visible"
     id="path2881"
     d="m 3.4999999,22.000085 c 0,0 0,1.999891 0,1.999891 C 2.8795275,24.003776 2,23.551901 2,22.999901 2,22.447902 2.6924,22.000085 3.4999999,22.000085 z" />
  <path
     style="opacity:0.15;fill:url(#radialGradient3021);fill-opacity:1;fill-rule:nonzero;stroke:none;stroke-width:1;marker:none;visibility:visible;display:inline;overflow:visible"
     id="path2883"
     d="m 20.5,22.000085 c 0,0 0,1.999891 0,1.999891 0.620472,0.0038 1.5,-0.448075 1.5,-1.000075 0,-0.551999 -0.692402,-0.999816 -1.5,-0.999816 z" />
  <path
     style="display:inline;fill:url(#linearGradient3016);fill-opacity:1;stroke:none"
     id="path4160-3"
     d="m 4,2 c 3.6664118,0 15.99998,0.0013 15.99998,0.0013 L 20,22 C 20,22 9.3333337,22 4,22 4,15.33334 4,8.6666817 4,2.0000212 Z" />
  <path
     style="fill:none;stroke:url(#linearGradient3013);stroke-width:1;stroke-linecap:round;stroke-linejoin:miter;stroke-miterlimit:4;stroke-opacity:1;stroke-dasharray:none;stroke-dashoffset:0"
     id="rect6741-1"
     d="m 19.5,21.5 -15.0000004,0 0,-19 L 19.5,2.5 z" />
  <path
     style="opacity:0.3;fill:none;stroke:#000000;stroke-width:0.99992186;stroke-linecap:butt;stroke-linejoin:round;stroke-miterlimit:4;stroke-opacity:1;stroke-dasharray:none;stroke-dashoffset:0;display:inline"
     id="path4160-3-1"
     d="m 3.4999601,1.4999569 c 3.8955809,0 17.0000589,0.00136 17.0000589,0.00136 l 2.1e-5,20.9987161 c 0,0 -11.3333862,0 -17.0000799,0 0,-7.000018 0,-14.000035 0,-21.0000538 z" />
  <path
     id="path3873-9-6"
     d="M 9.984375 7.9941406 C 9.261691 7.9941476 8.878628 8.1012026 8.515625 8.3222656 C 8.155948 8.5403536 7.984375 8.8874836 7.984375 9.3535156 L 7.984375 10.865234 C 7.984375 11.999117 6.9980469 11.992187 6.9980469 11.992188 L 6.9980469 13.035156 C 7.8839129 13.035158 7.984375 13.610358 7.984375 14.166016 L 7.984375 15.53125 C 7.984375 16.042099 8.14801 16.429204 8.484375 16.65625 C 8.824067 16.886279 9.215066 16.994023 9.984375 17 L 9.984375 16 C 9.601384 15.994 9.404218 15.92235 9.234375 15.796875 C 9.064525 15.671404 8.984375 15.494968 8.984375 15.25 L 8.984375 13.644531 C 8.984375 13.044061 8.2011719 12.464844 8.2011719 12.464844 C 8.2011719 12.464844 8.984375 11.907 8.984375 11.3125 L 8.984375 9.7675781 C 8.984375 9.5226141 9.064525 9.3588181 9.234375 9.2363281 C 9.407549 9.1108621 9.604715 9.0325211 9.984375 9.0175781 L 9.984375 7.9941406 z M 13.984375 7.9941406 L 13.984375 8.9726562 C 14.364036 8.9876063 14.561201 9.0659363 14.734375 9.1914062 C 14.904225 9.3138963 14.984375 9.4776923 14.984375 9.7226562 L 14.984375 11.390625 C 14.984375 11.985125 15.710938 12.464844 15.710938 12.464844 C 15.710938 12.464844 14.984375 13.098749 14.984375 13.699219 L 14.984375 15.228516 C 14.984375 15.473484 14.904225 15.64992 14.734375 15.775391 C 14.564532 15.900862 14.367366 15.972541 13.984375 15.978516 L 13.984375 17 C 14.753684 16.994 15.144684 16.886279 15.484375 16.65625 C 15.82074 16.429204 15.984375 16.042099 15.984375 15.53125 L 15.984375 14.166016 C 15.984375 13.610358 16.116087 13.035158 17.001953 13.035156 L 17.001953 11.992188 C 16.759509 11.816512 15.984375 11.99907 15.984375 10.865234 L 15.984375 9.3535156 C 15.984375 8.8874836 15.812802 8.5403536 15.453125 8.3222656 C 15.090122 8.1012026 14.70706 7.9941476 13.984375 7.9941406 z M 11.982422 10 L 11.982422 11 L 12.982422 11 L 12.982422 10 L 11.982422 10 z M 11.982422 13 L 11.982422 14 L 11.482422 15 L 12.232422 15 L 12.982422 14 L 12.982422 13 L 11.982422 13 z "
     style="color:#000000;font-style:normal;font-variant:normal;font-weight:600;font-stretch:normal;font-size:19px;line-height:125%;font-family:'Open Sans';-inkscape-font-specification:'Open Sans Semi-Bold';text-align:start;letter-spacing:0px;word-spacing:0px;writing-mode:lr-tb;text-anchor:start;clip-rule:nonzero;display:inline;overflow:visible;visibility:visible;opacity:1;isolation:auto;mix-blend-mode:normal;color-interpolation:sRGB;color-interpolation-filters:linearRGB;solid-color:#000000;solid-opacity:1;fill:url(#linearGradient3192-0-3-3);fill-opacity:1;fill-rule:nonzero;stroke:none;stroke-width:1;stroke-linecap:butt;stroke-linejoin:miter;stroke-miterlimit:4;stroke-dasharray:none;stroke-dashoffset:0;stroke-opacity:1;marker:none;color-rendering:auto;image-rendering:auto;shape-rendering:auto;text-rendering:auto;enable-background:accumulate" />
</svg>

<?xml version="1.0" encoding="UTF-8" standalone="no"?>
<svg
   xmlns:dc="http://purl.org/dc/elements/1.1/"
   xmlns:cc="http://creativecommons.org/ns#"
   xmlns:rdf="http://www.w3.org/1999/02/22-rdf-syntax-ns#"
   xmlns:svg="http://www.w3.org/2000/svg"
   xmlns="http://www.w3.org/2000/svg"
   xmlns:xlink="http://www.w3.org/1999/xlink"
   version="1.1"
   width="24"
   height="24"
   id="svg3828">
  <defs
     id="defs3830">
    <linearGradient
       id="linearGradient3977">
      <stop
         id="stop3979"
         style="stop-color:#ffffff;stop-opacity:1"
         offset="0" />
      <stop
         id="stop3981"
         style="stop-color:#ffffff;stop-opacity:0.23529412"
         offset="0" />
      <stop
         id="stop3983"
         style="stop-color:#ffffff;stop-opacity:0.15686275"
         offset="1" />
      <stop
         id="stop3985"
         style="stop-color:#ffffff;stop-opacity:0.39215687"
         offset="1" />
    </linearGradient>
    <linearGradient
       id="linearGradient3600-4">
      <stop
         id="stop3602-7"
         style="stop-color:#f4f4f4;stop-opacity:1"
         offset="0" />
      <stop
         id="stop3604-6"
         style="stop-color:#dbdbdb;stop-opacity:1"
         offset="1" />
    </linearGradient>
    <linearGradient
       id="linearGradient5060">
      <stop
         id="stop5062"
         style="stop-color:#000000;stop-opacity:1"
         offset="0" />
      <stop
         id="stop5064"
         style="stop-color:#000000;stop-opacity:0"
         offset="1" />
    </linearGradient>
    <linearGradient
       id="linearGradient5048">
      <stop
         id="stop5050"
         style="stop-color:#000000;stop-opacity:0"
         offset="0" />
      <stop
         id="stop5056"
         style="stop-color:#000000;stop-opacity:1"
         offset="0.5" />
      <stop
         id="stop5052"
         style="stop-color:#000000;stop-opacity:0"
         offset="1" />
    </linearGradient>
    <linearGradient
       x1="23.99999"
       y1="6.4736748"
       x2="23.99999"
       y2="41.526306"
       id="linearGradient3013"
       xlink:href="#linearGradient3977"
       gradientUnits="userSpaceOnUse"
       gradientTransform="matrix(0.40540511,0,0,0.51351351,2.2696871,-0.3243195)" />
    <linearGradient
       x1="25.132275"
       y1="0.98520643"
       x2="25.132275"
       y2="47.013336"
       id="linearGradient3016"
       xlink:href="#linearGradient3600-4"
       gradientUnits="userSpaceOnUse"
       gradientTransform="matrix(0.45714178,0,0,0.43456667,1.0285964,0.90372283)" />
    <radialGradient
       cx="605.71429"
       cy="486.64789"
       r="117.14286"
       fx="605.71429"
       fy="486.64789"
       id="radialGradient3021"
       xlink:href="#linearGradient5060"
       gradientUnits="userSpaceOnUse"
       gradientTransform="matrix(0.01204859,0,0,0.0082353,13.238793,18.980564)" />
    <radialGradient
       cx="605.71429"
       cy="486.64789"
       r="117.14286"
       fx="605.71429"
       fy="486.64789"
       id="radialGradient3024"
       xlink:href="#linearGradient5060"
       gradientUnits="userSpaceOnUse"
       gradientTransform="matrix(-0.01204859,0,0,0.0082353,10.761206,18.980564)" />
    <linearGradient
       x1="302.85715"
       y1="366.64789"
       x2="302.85715"
       y2="609.50507"
       id="linearGradient3027"
       xlink:href="#linearGradient5048"
       gradientUnits="userSpaceOnUse"
       gradientTransform="matrix(0.0352071,0,0,0.0082353,-0.724852,18.980547)" />
    <linearGradient
       gradientTransform="matrix(0.5531492,0.14755837,-0.08960859,0.33296082,2.512849,-0.540137)"
       gradientUnits="userSpaceOnUse"
       xlink:href="#linearGradient937"
       id="linearGradient3192-0-3-3"
       y2="57.507111"
       x2="26.887402"
       y1="-1.7638716"
       x1="17.285671" />
    <linearGradient
       id="linearGradient937">
      <stop
         id="stop933"
         offset="0"
         style="stop-color:#9bdb4d;stop-opacity:1" />
      <stop
         id="stop935"
         offset="1"
         style="stop-color:#3a9104;stop-opacity:1" />
    </linearGradient>
    <linearGradient
       xlink:href="#linearGradient4169"
       id="linearGradient911"
       x1="61"
       y1="63"
       x2="67"
       y2="63"
       gradientUnits="userSpaceOnUse" />
    <linearGradient
       id="linearGradient4169">
      <stop
         style="stop-color:#43d6b5;stop-opacity:1"
         offset="0"
         id="stop4171" />
      <stop
         style="stop-color:#0e9a83;stop-opacity:1"
         offset="1"
         id="stop4173" />
    </linearGradient>
    <linearGradient
       xlink:href="#linearGradient937"
       id="linearGradient913"
       gradientUnits="userSpaceOnUse"
       x1="60.520607"
       y1="1.5206056"
       x2="60.551304"
       y2="118.53259" />
  </defs>
  <metadata
     id="metadata3833">
    <rdf:RDF>
      <cc:Work
         rdf:about="">
        <dc:format>image/svg+xml</dc:format>
        <dc:type
           rdf:resource="http://purl.org/dc/dcmitype/StillImage" />
        <dc:title />
      </cc:Work>
    </rdf:RDF>
  </metadata>
  <rect
     width="16.999998"
     height="2"
     x="3.5000007"
     y="22"
     id="rect2879"
     style="opacity:0.15;fill:url(#linearGradient3027);fill-opacity:1;fill-rule:nonzero;stroke:none;stroke-width:1;marker:none;visibility:visible;display:inline;overflow:visible" />
  <path
     d="m 3.4999999,22.000085 c 0,0 0,1.999891 0,1.999891 C 2.8795275,24.003776 2,23.551901 2,22.999901 2,22.447902 2.6924,22.000085 3.4999999,22.000085 z"
     id="path2881"
     style="opacity:0.15;fill:url(#radialGradient3024);fill-opacity:1;fill-rule:nonzero;stroke:none;stroke-width:1;marker:none;visibility:visible;display:inline;overflow:visible" />
  <path
     d="m 20.5,22.000085 c 0,0 0,1.999891 0,1.999891 0.620472,0.0038 1.5,-0.448075 1.5,-1.000075 0,-0.551999 -0.692402,-0.999816 -1.5,-0.999816 z"
     id="path2883"
     style="opacity:0.15;fill:url(#radialGradient3021);fill-opacity:1;fill-rule:nonzero;stroke:none;stroke-width:1;marker:none;visibility:visible;display:inline;overflow:visible" />
  <path
     d="m 4,2 c 3.6664118,0 15.99998,0.0013 15.99998,0.0013 L 20,22 C 20,22 9.3333337,22 4,22 4,15.33334 4,8.6666817 4,2.0000212 Z"
     id="path4160-3"
     style="display:inline;fill:url(#linearGradient3016);fill-opacity:1;stroke:none" />
  <path
     d="m 19.5,21.5 -15.0000004,0 0,-19 L 19.5,2.5 z"
     id="rect6741-1"
     style="fill:none;stroke:url(#linearGradient3013);stroke-width:1;stroke-linecap:round;stroke-linejoin:miter;stroke-miterlimit:4;stroke-opacity:1;stroke-dasharray:none;stroke-dashoffset:0" />
  <path
     d="m 3.4999601,1.4999569 c 3.8955809,0 17.0000589,0.00136 17.0000589,0.00136 l 2.1e-5,20.9987161 c 0,0 -11.3333862,0 -17.0000799,0 0,-7.000018 0,-14.000035 0,-21.0000538 z"
     id="path4160-3-1"
     style="opacity:0.3;fill:none;stroke:#000000;stroke-width:0.99992186;stroke-linecap:butt;stroke-linejoin:round;stroke-miterlimit:4;stroke-opacity:1;stroke-dasharray:none;stroke-dashoffset:0;display:inline" />
  <g
     transform="translate(-0.016709)"
     id="g829">
    <path
       style="color:#000000;font-style:normal;font-variant:normal;font-weight:600;font-stretch:normal;font-size:19px;line-height:125%;font-family:'Open Sans';-inkscape-font-specification:'Open Sans Semi-Bold';text-align:start;letter-spacing:0px;word-spacing:0px;writing-mode:lr-tb;text-anchor:start;clip-rule:nonzero;display:inline;overflow:visible;visibility:visible;opacity:1;isolation:auto;mix-blend-mode:normal;color-interpolation:sRGB;color-interpolation-filters:linearRGB;solid-color:#000000;solid-opacity:1;fill:url(#linearGradient3192-0-3-3);fill-opacity:1;fill-rule:nonzero;stroke:none;stroke-width:1;stroke-linecap:butt;stroke-linejoin:miter;stroke-miterlimit:4;stroke-dasharray:none;stroke-dashoffset:0;stroke-opacity:1;marker:none;color-rendering:auto;image-rendering:auto;shape-rendering:auto;text-rendering:auto;enable-background:accumulate"
       d="m 10.000136,7.994582 c -0.722684,7e-6 -1.105747,0.107062 -1.46875,0.328125 -0.359677,0.218088 -0.53125,0.565218 -0.53125,1.03125 v 1.51216 C 8.000136,12 7.014,11.992553 7.014,11.992553 v 1.042623 c 0.885866,2e-6 0.986136,0.575354 0.986136,1.131012 v 1.365062 c 0,0.510849 0.163635,0.897954 0.5,1.125 0.339692,0.230029 0.730691,0.337773 1.5,0.34375 v -1.000325 c -0.382991,-0.006 -0.580157,-0.07765 -0.75,-0.203125 -0.16985,-0.125471 -0.25,-0.301907 -0.25,-0.546875 v -1.605512 c 0,-0.60047 -0.781313,-1.178971 -0.781313,-1.178971 0,0 0.781313,-0.557569 0.781313,-1.152069 V 9.767004 c 0,-0.244964 0.08015,-0.40876 0.25,-0.53125 0.173174,-0.125466 0.37034,-0.203807 0.75,-0.21875 z m 4,0 V 8.97281 c 0.379661,0.01495 0.576826,0.09328 0.75,0.21875 0.16985,0.12249 0.25,0.286286 0.25,0.53125 v 1.666908 c 0,0.5945 0.726602,1.075474 0.726602,1.075474 0,0 -0.726602,0.633212 -0.726602,1.233682 v 1.528704 c 0,0.244968 -0.08015,0.421404 -0.25,0.546875 -0.169843,0.125471 -0.367009,0.19715 -0.75,0.203125 V 17 c 0.769309,-0.006 1.160309,-0.113721 1.5,-0.34375 0.336365,-0.227046 0.5,-0.614151 0.5,-1.125 v -1.365062 c 0,-0.555658 0.133416,-1.13101 1.019282,-1.131012 v -1.042623 c -0.242444,-0.175676 -1.019282,0.0074 -1.019282,-1.126436 v -1.51216 c 0,-0.466032 -0.171573,-0.813162 -0.53125,-1.03125 -0.363003,-0.221063 -0.746065,-0.328118 -1.46875,-0.328125 z"
       id="path3873-9-6" />
    <g
       id="text828"
       style="font-style:normal;font-weight:normal;font-size:40px;line-height:1.25;font-family:sans-serif;letter-spacing:0px;word-spacing:0px;fill:url(#linearGradient911);fill-opacity:1;stroke:none"
       aria-label=";"
       transform="matrix(0.25,0,0,0.25,-3.75,-3.25)">
      <path
         id="path832"
         style="font-style:normal;font-variant:normal;font-weight:normal;font-stretch:normal;font-size:32px;font-family:'Noto Sans Gothic';-inkscape-font-specification:'Noto Sans Gothic, Normal';font-variant-ligatures:normal;font-variant-caps:normal;font-variant-numeric:normal;font-feature-settings:normal;text-align:start;writing-mode:lr-tb;text-anchor:start;fill:url(#linearGradient913);fill-opacity:1"
         d="m 63,53 h 4 v 4 h -4 z m 0,12 h 4 v 4 l -3,4 h -3 l 2,-4 z" />
    </g>
  </g>
</svg>
